X:1
T:A minor - D Major Amos Bull, 1795
T:Based on Habakkuk Chapter 3
T:O Lord, revive Thy work Anthem XII No copyright. Transcribed from The Responsary, 1795.
%%score [ 1 2 3 4 ]
L:1/8
M:4/4
K:C
V:1 treble nm="Treble 1" snm="Tr. 1"
V:2 treble nm="Treble 2" snm="Tr. 2"
V:3 treble-8 nm="Tenor" snm="T."
V:4 bass nm="Bass" snm="B."
V:1
 A4 | A6 z2 | B4 B4 | c4 B4 | (c2 d2) e4 | e>d c2 B2 B2 | A6 z2 | c>B A2 G2 A2 | E4 G4 | G4 c2 B2 | %10
 (A2 B4) c2 | d2 d2 e2 e2- | e2 z2 e2 d2 | c4 B4 | c2 BA ^G4 | A8 ||[K:D][M:3/2] z8 A4 | A4 d4 e4 | %18
 fe dc d4 e4 | A3 B c4 d4 | (c2 d2) e4 e4 | (d2 cB) A4 A4 | (B3 A G2 F2) E4 | F2 G2 A2 B2 A4- | %24
 A4 z4 c4 | d8 (c2 B2) | A8 G4 | F4 B4 c4 | d8 z4 | z12 | z4 z4 B4 | d4 B2 B2 e2 dc | B4 G4 F4- | %33
 F4 z4 c4 | d8 d4 | (B4 c4) d4 | (e4 d4) c4 | d12 ||[M:4/4] z4 B4 | f2 f2 f f/e/ d2 | F4 B4- | %41
 B4 z2 B2 | e2 e2 ee e2 | e4 e4- | e4 z2 A>G | F2 A2 f>e d>c | B4 z2 F>G | A2 Bc Ad ef | %48
 (g>f e2) e>d c2 | d8 | z4 B4 | B4 F4 | B2 B2 ^A4 | B4 z2 f2 | d4 A4 | B2 c2 (d2 e2) | d8 || %57
[K:C][M:4/4] z2 z A A2 A2 | c2 B2 ed c2 | cB A2 z2 AA | A2 c2 B2 AA | G2 z G c2 c2 | dd B2 e2 dc | %63
 B2 z2 BB c2 | G2 d2 B4 | c4 z2 e2 | g2 e2 c2 A2 | E4 G3 G | G4 z2 c2 | B2 c2 d2 e2 | %70
 (c>B A2) ^G3 G | A4 z2 A>B ||[M:3/4] c2 B2 A2 | B4 (3ede | c2 d>c (B>c | A2) c2 d2 | e4 z2 |: %77
 e>d (c>ed>c | B2) c2 B2 | A4 E2 | G2 G2 G2 | G4 E2 | A2 A2 c>d | e4 c2 | d2 c2 B>A | B4 c>d | %86
 (c2 d2) (3edc | B6 | A6 :| %89
V:2
 A4 | A6 z2 | E4 E4 | G4 G4 | (A2 B2) B4 | c>B A2 G2 E2 | E6 z2 | A>B c2 B2 A2 | e4 e4 | c4 c2 d2 | %10
w: O|Lord,|O Lord,|re- vive|Thy * work|in the midst of the|years,|In the midst of the|years make|known, and in|
 (c2 B4) A2 | B2 B2 B2 B2- | B2 z2 c2 B2 | A4 B4 | E2 F2 E4 | E8 ||[K:D][M:3/2] z8 A4 | F4 B4 c4 | %18
w: wrath, * re-|mem- ber mer- cy,~|* and in|wrath re-|mem- ber mer-|cy.|Thy|pre- sence hath|
 dc BA B4 c4 | c3 d e4 B4 | A4 A4 A4 | (B2 AG) F4 D4 | (d3 c d4) e4 | A2 B2 c2 d2 e4- | e4 z4 A4 | %25
w: scat- * ter- * ed the|ev- er- last- ing|moun- tains, and|bow- * * ed, and|bow- * * ed|the per- pet- ual hills~|* and|
 B8 (A2 G2) | F8 G4 | F4 G4 A4 | F8 z4 | z12 | z4 z4 B4 | A4 d2 d2 c2 BA | G4 E4 B4- | B4 z4 A4 | %34
w: bow- ed *|the per-|pet- * ual|hills.||The|deep al- so ut- ter- *|eth his voice,~|* and|
 A8 F4 | (d4 c4) B4 | A8 A4 | F12 ||[M:4/4] z4 B4 | B2 B2 d d/c/ B2 | A4 F4- | F4 z2 B2 | %42
w: lift- eth|up * him-|self on|high.|Thy|glo- ry co- ver- * eth|the heav'ns~|* Thy|
 c2 A2 BB B2 | B4 B4- | B4 z2 A>G | F2 A2 f>e d>c | B4 z2 d>e | f2 dc d2 A2 | B>dcB A2 A2 | F8 | %50
w: glo- ry co- ver- eth|the heav'ns~|* And the|earth is full of Thy *|praise, and the|earth is * full, is|full * * * of Thy|praise.|
 z4 B4 | B4 c4 | d2 d2 F4 | F4 z2 d2 | A4 F4 | G2 A2 A4 | F8 ||[K:C][M:4/4] z2 z A A2 A2 | %58
w: Thy|ways are|ev- er- last-|ing, Thy|ways are|ev- er- last-|ing.|Al- though the|
 c2 B2 ed c2 | cB A2 z2 AA | A2 c2 B2 AA | G2 z G c2 c2 | dd A2 e2 dc | B2 z2 BB c2 | G2 d2 B4 | %65
w: fig tree shall * not|blos- * som, Nei- ther|shall fruit be in the|vine, The la- bor|of the ol- ive shall *|fail, And the field|shall yield no|
 c4 z2 e2 | g2 e2 c2 A2 | E4 G3 G | G4 z2 c2 | B2 c2 d2 e2 | (c>B A2) ^G3 G | A4 z2 E>E || %72
w: store, The|flock shall be cut|off from the|fold, And|there shall be no|herd * * in the|stall, Yet will|
[M:3/4] G4 A2 | E4 (3cBA | A2 G2 (G2 | A2) A2 B2 | B4 z2 |: c>B (A>cB>A | ^G2) A2 E2 | E4 E2 | %80
w: I re-|joice, yet * will|I re- joice~|* in the|Lord.|re- * joice~~ * * *|* in the|Lord, and|
 c2 c2 B2 | B4 e2 | e2 e2 e>d | c4 G2 | d2 e2 d>c | B4 A2 | (A2 B2) A2 | E6 | E6 :| %89
w: joy in the|God, and|joy in the *|God, and|joy in the *|God of|my * sal-|va-|tion.|
V:3
 A4 | A6 z2 | B4 B4 | c4 d4 | (c2 B2) e4 | c>B A2 B2 ^G2 | A6 z2 | c>d e2 B2 c2 | B4 c4 | %9
w: |||||||||
 G4 c2 d2 | e6 e2 | d2 d2 B2 B2- | B2 z2 A2 B2 | c4 d4 | e2 dc B4 | A8 ||[K:D][M:3/2] z12 | z12 | %18
w: |||||||||
 z12 | z12 | z8 A4 | D4 D4 D4 | G8 G4 | A2 G2 F2 D2 A4- | A4 z4 e4 | d8 (A2 B2) | (c6 d2) e4 | %27
w: |||||||||
 d8 A4 | A8 A4 | B8 B4 | B4 B3 c B4 | F4 F4 A2 A2 | B4 B4 B4- | B4 z4 A4 | A8 A4 | (B4 A4) B4 | %36
w: |* The|deep al-|so ut- ter- eth|his voice, ut- ter-|eth his voice.~||||
 (c4 d4) e4 | d12 ||[M:4/4] z4 B4 | B2 B2 A B/c/ d2 | F4 B4- | B4 z2 B2 | A2 A2 EE E2 | G4 B4- | %44
w: ||||||||
 B4 z4 | z8 | z4 z2 F>E | D2 de dA A2 | (B2 A2) A2 A2 | A8 | z4 E4 | F4 A4 | B2 B2 c4 | B4 z2 A2 | %54
w: ||||||||||
 d4 c4 | B2 A2 A4 | A8 ||[K:C][M:4/4] z2 z A A2 A2 | A2 E2 cB A2 | G2 A2 z2 AA | A2 G2 G2 c c/d/ | %61
w: |||||||
 c2 z e e2 c2 | BB B2 c2 dc | B2 z2 BB c2 | G2 G2 G4 | G4 z2 c2 | e2 e2 e2 c2 | B4 G3 G | %68
w: |||||||
 c4 z2 c2 | B2 A2 G2 c2 | (e>d c2) B3 B | A4 z2 e>d ||[M:3/4] c2 d2 c2 | B4 z2 | z6 | z2 e2 d2 | %76
w: ||||||||
 B4 z2 |: e2 (e2 f2 | e2) A2 ^G2 | A4 B2 | e2 e2 d2 | d4 e2 | e2 e2 c>B | A4 E2 | B2 c2 d2 | %85
w: |||||||||
 e4 c2 | (c2 B2) A2 | ^G6 | A6 :| %89
w: ||||
V:4
 [A,,A,]4 | [A,,A,]6 z2 | E,4 E,4 | C,4 G,4 | (A,2 B,2) E,4 | A,,>B,, C,2 D,2 E,2 | A,,6 z2 | %7
 A,>B, C2 B,2 A,2 | E,4 C,4 | C,4 C,2 G,2 | (A,2 E,4) C,2 | B,,2 B,,2 E,2 E,2- | E,2 z2 C2 B,2 | %13
 A,4 G,4 | C,2 D,2 E,4 | A,,8 ||[K:D][M:3/2] z12 | z12 | z12 | z12 | z8 A,4 | D,4 D,4 D,4 | %22
 G,8 G,4 | A,2 G,2 F,2 D,2 A,,4- | A,,4 z4 A,4 | D,8 A,,4 | F,8 E,4 | F,4 G,4 A,4 | D,8 F,4 | %29
 B,,8 B,,4 | B,,4 B,,3 B,, B,,4 | F,4 D,4 A,,2 A,,2 | E,4 E,4 B,,4- | B,,4 z4 A,4 | D,8 D,4 | %35
 (G,4 A,4) B,4 | (A,4 D,4) A,,4 | D,12 ||[M:4/4] z4 E,4 | D,2 D,2 D,D, G,2 | F,4 B,,4- | %41
 B,,4 z2 G,2 | A,2 A,,2 E,E, E,2 | E,4 E,4- | E,4 z2 F,>G, | A,2 D,2 D,>E, F,2 | B,,4 z2 F,>E, | %47
 D,2 F,A, F,D, A,,2 | (G,2 A,2) A,,2 A,,2 | D,8 | z4 E,4 | B,,4 F,4 | D,2 G,2 F,4 | B,,4 z2 D,2 | %54
 (F,>E, D,2) F,4 | G,2 A,2 A,,4 | D,8 ||[K:C][M:4/4] z2 z A,, A,,2 A,,2 | A,,2 E,2 C,2 C,2 | %59
 C,/D,/E, A,,2 z2 A,,A,, | A,,2 E,2 G,2 C,C, | C,2 z C, C,2 C,2 | G,G, G,2 A,2 B,A, | %63
 E,2 z2 E,E, A,2 | C,2 D,2 G,,4 | C,4 z2 C2 | C2 C2 A,2 A,2 | E,4 G,3 G, | C,4 z2 C,2 | %69
 G,,2 A,,2 B,,2 C,2 | (C,2 D,2) E,3 E, | A,,4 z2 A,,>E, ||[M:3/4] C,2 G,2 A,2 | E,4 z2 | %74
 z2 B,2 (E,2 | D,2) C,2 B,,2 | E,4 z2 |: A,,2 (A,,2 D,2 | E,2) A,2 E,2 | A,,4 E,2 | C,2 C,2 G,,2 | %81
 G,,4 E,2 | A,2 A,2 A,>B, | C4 C,2 | B,,2 A,,2 B,,2 | E,4 A,2 | (C,2 G,2) D,2 | E,6 | A,,6 :| %89

